contributed-vectors/firefox_lockwise.svg

<svg width="192" height="192" viewBox="0 0 192 192" fill="none" xmlns="http://www.w3.org/2000/svg">
<g clip-path="url(#clip0)">
<path d="M144.105 143.289L115.19 172.203L103.744 161.107L125.52 139.33L106.944 118.517C101.175 112.052 101.771 102.126 108.274 96.3998C115.038 90.4427 115.368 80.0122 108.995 73.6389L107.988 72.632C101.368 66.0118 90.6343 66.0118 84.014 72.632L83.0236 73.6224C76.6413 80.0047 76.9722 90.4498 83.7457 96.4152C90.244 102.138 90.8544 112.052 85.1072 118.529L77.2801 127.35C74.0054 131.041 68.2987 131.211 64.8098 127.722C61.463 124.376 61.463 118.949 64.8098 115.602L73.6232 106.789L73.2397 106.405C60.6689 93.8347 60.6689 73.4535 73.2397 60.8828C85.8104 48.3121 106.192 48.3121 118.762 60.8828C131.333 73.4535 131.333 93.8347 118.762 106.405L118.379 106.789L144.105 132.515C147.08 135.49 147.08 140.314 144.105 143.289Z" fill="url(#paint0_linear)"/>
<path d="M20.1526 76.9592C9.55427 87.5576 9.55426 104.741 20.1526 115.339L77.0169 172.204C82.3159 177.503 89.2612 180.152 96.2065 180.152C103.152 180.152 110.097 177.503 115.396 172.204L131.581 156.019C134.556 153.044 134.556 148.221 131.581 145.246L125.521 139.186L103.949 160.757C101.811 162.895 99.0089 163.964 96.2065 163.964C93.4041 163.964 90.6017 162.895 88.4636 160.757L26.2606 98.5538C20.6119 92.9052 18.2995 84.7297 20.1526 76.9592Z" fill="url(#paint1_linear)"/>
<path d="M172.26 76.9592C182.655 87.9096 182.655 104.098 172.18 115.048L160.909 126.32C157.82 129.409 152.819 129.432 149.701 126.372C146.541 123.271 146.517 118.189 149.648 115.058L166.152 98.5538C171.801 92.9052 174.113 84.7297 172.26 76.9592Z" fill="url(#paint2_linear)"/>
<path d="M19.9471 115.193C9.3487 104.595 9.34869 87.4114 19.9471 76.813L76.8113 19.9488C82.1104 14.6497 89.0556 12.0001 96.0009 12C102.946 12.0001 109.891 14.6497 115.191 19.9488L172.055 76.813C182.653 87.4114 182.653 104.595 172.055 115.193C173.908 107.423 171.595 99.2472 165.947 93.5985L103.744 31.3955C101.606 29.2573 98.8033 28.1882 96.0009 28.1881C93.1985 28.1882 90.3962 29.2573 88.258 31.3955L26.055 93.5985C20.4063 99.2472 18.094 107.423 19.9471 115.193Z" fill="url(#paint3_linear)"/>
<mask id="mask0" mask-type="alpha" maskUnits="userSpaceOnUse" x="12" y="76" width="169" height="105">
<path d="M20.1526 76.9592C9.55427 87.5576 9.55426 104.741 20.1526 115.339L77.0169 172.204C82.3159 177.503 89.2612 180.152 96.2065 180.152C103.152 180.152 110.097 177.503 115.396 172.204L131.581 156.019C134.556 153.044 134.556 148.221 131.581 145.246L125.521 139.186L103.949 160.757C101.811 162.895 99.0089 163.964 96.2065 163.964C93.4041 163.964 90.6017 162.895 88.4636 160.757L26.2606 98.5538C20.6119 92.9052 18.2995 84.7297 20.1526 76.9592Z" fill="url(#paint4_linear)"/>
<path d="M172.26 76.9592C182.655 87.9096 182.655 104.098 172.18 115.048L160.909 126.32C157.82 129.409 152.819 129.432 149.701 126.372C146.541 123.271 146.517 118.189 149.648 115.058L166.152 98.5538C171.801 92.9052 174.113 84.7297 172.26 76.9592Z" fill="url(#paint5_linear)"/>
</mask>
<g mask="url(#mask0)">
<path d="M131.609 156.111L124.719 163.002L113.052 151.686L125.499 139.238L131.604 145.333C134.584 148.308 134.586 153.134 131.609 156.111Z" fill="url(#paint6_linear)"/>
</g>
<mask id="mask1" mask-type="alpha" maskUnits="userSpaceOnUse" x="12" y="76" width="169" height="105">
<path d="M20.1526 76.9592C9.55427 87.5576 9.55426 104.741 20.1526 115.339L77.0169 172.204C82.3159 177.503 89.2612 180.152 96.2065 180.152C103.152 180.152 110.097 177.503 115.396 172.204L131.581 156.019C134.556 153.044 134.556 148.221 131.581 145.246L125.521 139.186L103.949 160.757C101.811 162.895 99.0089 163.964 96.2065 163.964C93.4041 163.964 90.6017 162.895 88.4636 160.757L26.2606 98.5538C20.6119 92.9052 18.2995 84.7297 20.1526 76.9592Z" fill="url(#paint7_linear)"/>
<path d="M172.26 76.9592C182.655 87.9096 182.655 104.098 172.18 115.048L160.909 126.32C157.82 129.409 152.819 129.432 149.701 126.372C146.541 123.271 146.517 118.189 149.648 115.058L166.152 98.5538C171.801 92.9052 174.113 84.7297 172.26 76.9592Z" fill="url(#paint8_linear)"/>
</mask>
<g mask="url(#mask1)">
<path d="M167.5 120L155.833 108.684L168.28 96.2364C170.52 98.991 174.4 106.6 172 115L167.5 120Z" fill="url(#paint9_linear)"/>
<path d="M24.5001 120L36.1667 108.684L24 96C20.5 100.5 17.5 108.5 20.5 117L24.5001 120Z" fill="url(#paint10_linear)"/>
</g>
</g>
<defs>
<linearGradient id="paint0_linear" x1="99.9849" y1="112.5" x2="99.9849" y2="41.5" gradientUnits="userSpaceOnUse">
<stop stop-color="#F4806D"/>
<stop offset="1" stop-color="#F9DE81"/>
</linearGradient>
<linearGradient id="paint1_linear" x1="24" y1="112" x2="201" y2="91.5" gradientUnits="userSpaceOnUse">
<stop stop-color="#9ABEFF"/>
<stop offset="1" stop-color="#8C72BD"/>
</linearGradient>
<linearGradient id="paint2_linear" x1="24" y1="112" x2="201" y2="91.5" gradientUnits="userSpaceOnUse">
<stop stop-color="#9ABEFF"/>
<stop offset="1" stop-color="#8C72BD"/>
</linearGradient>
<linearGradient id="paint3_linear" x1="54" y1="118.5" x2="129" y2="12" gradientUnits="userSpaceOnUse">
<stop stop-color="#E85E5C"/>
<stop offset="1" stop-color="#F9DE81"/>
</linearGradient>
<linearGradient id="paint4_linear" x1="24" y1="112" x2="201" y2="91.5" gradientUnits="userSpaceOnUse">
<stop stop-color="#9ABEFF"/>
<stop offset="1" stop-color="#8C72BD"/>
</linearGradient>
<linearGradient id="paint5_linear" x1="24" y1="112" x2="201" y2="91.5" gradientUnits="userSpaceOnUse">
<stop stop-color="#9ABEFF"/>
<stop offset="1" stop-color="#8C72BD"/>
</linearGradient>
<linearGradient id="paint6_linear" x1="160.5" y1="115" x2="125.5" y2="150" gradientUnits="userSpaceOnUse">
<stop offset="0.40976"/>
<stop offset="1" stop-opacity="0"/>
</linearGradient>
<linearGradient id="paint7_linear" x1="24" y1="112" x2="201" y2="91.5" gradientUnits="userSpaceOnUse">
<stop stop-color="#9ABEFF"/>
<stop offset="1" stop-color="#8C72BD"/>
</linearGradient>
<linearGradient id="paint8_linear" x1="24" y1="112" x2="201" y2="91.5" gradientUnits="userSpaceOnUse">
<stop stop-color="#9ABEFF"/>
<stop offset="1" stop-color="#8C72BD"/>
</linearGradient>
<linearGradient id="paint9_linear" x1="208.5" y1="83" x2="164" y2="104.5" gradientUnits="userSpaceOnUse">
<stop stop-color="#575757"/>
<stop offset="1" stop-opacity="0"/>
</linearGradient>
<linearGradient id="paint10_linear" x1="-14.5" y1="83" x2="28" y2="106" gradientUnits="userSpaceOnUse">
<stop stop-color="#575757"/>
<stop offset="1" stop-opacity="0"/>
</linearGradient>
<clipPath id="clip0">
<rect width="192" height="192" fill="white"/>
</clipPath>
</defs>
</svg>

<svg xmlns="http://www.w3.org/2000/svg" width="192" height="192" fill="none"><g clip-path="url(#a)"><path fill="url(#b)" d="m144.105 143.289-28.915 28.914-11.446-11.096 21.776-21.777-18.576-20.813c-5.769-6.465-5.173-16.391 1.33-22.117 6.764-5.957 7.094-16.388.721-22.761l-1.007-1.007c-6.62-6.62-17.354-6.62-23.974 0l-.99.99c-6.383 6.383-6.052 16.828.722 22.793 6.498 5.723 7.108 15.637 1.361 22.114l-7.827 8.821c-3.275 3.691-8.981 3.861-12.47.372a8.57 8.57 0 0 1 0-12.12l8.813-8.813-.383-.384c-12.571-12.57-12.571-32.951 0-45.522 12.57-12.57 32.952-12.57 45.522 0 12.571 12.57 12.571 32.952 0 45.522l-.383.384 25.726 25.726a7.619 7.619 0 0 1 0 10.774Z"/><path fill="url(#c)" d="M20.153 76.96c-10.599 10.598-10.599 27.781 0 38.379l56.864 56.865a27.053 27.053 0 0 0 19.19 7.948c6.945 0 13.89-2.649 19.189-7.948l16.185-16.185a7.617 7.617 0 0 0 0-10.773l-6.06-6.06-21.572 21.571a10.915 10.915 0 0 1-7.742 3.207 10.916 10.916 0 0 1-7.743-3.207L26.26 98.554a22.995 22.995 0 0 1-6.108-21.595Z"/><path fill="url(#d)" d="M172.26 76.96c10.395 10.95 10.395 27.138-.08 38.088l-11.271 11.272a7.963 7.963 0 0 1-11.208.052 7.962 7.962 0 0 1-.053-11.314l16.504-16.504a22.995 22.995 0 0 0 6.108-21.595Z"/><path fill="url(#e)" d="M19.947 115.193c-10.598-10.598-10.598-27.782 0-38.38l56.864-56.864A27.054 27.054 0 0 1 96.001 12c6.945 0 13.89 2.65 19.19 7.949l56.864 56.864c10.598 10.598 10.598 27.782 0 38.38a22.998 22.998 0 0 0-6.108-21.594l-62.203-62.204a10.916 10.916 0 0 0-7.743-3.207c-2.803 0-5.605 1.07-7.743 3.207L26.055 93.6a22.996 22.996 0 0 0-6.108 21.594Z"/><mask id="h" width="169" height="105" x="12" y="76" mask-type="alpha" maskUnits="userSpaceOnUse"><path fill="url(#f)" d="M20.153 76.96c-10.599 10.598-10.599 27.781 0 38.379l56.864 56.865a27.053 27.053 0 0 0 19.19 7.948c6.945 0 13.89-2.649 19.189-7.948l16.185-16.185a7.617 7.617 0 0 0 0-10.773l-6.06-6.06-21.572 21.571a10.915 10.915 0 0 1-7.742 3.207 10.916 10.916 0 0 1-7.743-3.207L26.26 98.554a22.995 22.995 0 0 1-6.108-21.595Z"/><path fill="url(#g)" d="M172.26 76.96c10.395 10.95 10.395 27.138-.08 38.088l-11.271 11.272a7.963 7.963 0 0 1-11.208.052 7.962 7.962 0 0 1-.053-11.314l16.504-16.504a22.995 22.995 0 0 0 6.108-21.595Z"/></mask><g mask="url(#h)"><path fill="url(#i)" d="m131.609 156.111-6.89 6.891-11.667-11.316 12.447-12.448 6.105 6.095a7.617 7.617 0 0 1 .005 10.778Z"/></g><mask id="l" width="169" height="105" x="12" y="76" mask-type="alpha" maskUnits="userSpaceOnUse"><path fill="url(#j)" d="M20.153 76.96c-10.599 10.598-10.599 27.781 0 38.379l56.864 56.865a27.053 27.053 0 0 0 19.19 7.948c6.945 0 13.89-2.649 19.189-7.948l16.185-16.185a7.617 7.617 0 0 0 0-10.773l-6.06-6.06-21.572 21.571a10.915 10.915 0 0 1-7.742 3.207 10.916 10.916 0 0 1-7.743-3.207L26.26 98.554a22.995 22.995 0 0 1-6.108-21.595Z"/><path fill="url(#k)" d="M172.26 76.96c10.395 10.95 10.395 27.138-.08 38.088l-11.271 11.272a7.963 7.963 0 0 1-11.208.052 7.962 7.962 0 0 1-.053-11.314l16.504-16.504a22.995 22.995 0 0 0 6.108-21.595Z"/></mask><g mask="url(#l)"><path fill="url(#m)" d="m167.5 120-11.667-11.316 12.447-12.448C170.52 98.991 174.4 106.6 172 115l-4.5 5Z"/><path fill="url(#n)" d="m24.5 120 11.667-11.316L24 96c-3.5 4.5-6.5 12.5-3.5 21l4 3Z"/></g></g><defs><linearGradient id="b" x1="99.985" x2="99.985" y1="112.5" y2="41.5" gradientUnits="userSpaceOnUse"><stop stop-color="#F4806D"/><stop offset="1" stop-color="#F9DE81"/></linearGradient><linearGradient id="c" x1="24" x2="201" y1="112" y2="91.5" gradientUnits="userSpaceOnUse"><stop stop-color="#9ABEFF"/><stop offset="1" stop-color="#8C72BD"/></linearGradient><linearGradient id="d" x1="24" x2="201" y1="112" y2="91.5" gradientUnits="userSpaceOnUse"><stop stop-color="#9ABEFF"/><stop offset="1" stop-color="#8C72BD"/></linearGradient><linearGradient id="e" x1="54" x2="129" y1="118.5" y2="12" gradientUnits="userSpaceOnUse"><stop stop-color="#E85E5C"/><stop offset="1" stop-color="#F9DE81"/></linearGradient><linearGradient id="f" x1="24" x2="201" y1="112" y2="91.5" gradientUnits="userSpaceOnUse"><stop stop-color="#9ABEFF"/><stop offset="1" stop-color="#8C72BD"/></linearGradient><linearGradient id="g" x1="24" x2="201" y1="112" y2="91.5" gradientUnits="userSpaceOnUse"><stop stop-color="#9ABEFF"/><stop offset="1" stop-color="#8C72BD"/></linearGradient><linearGradient id="i" x1="160.5" x2="125.5" y1="115" y2="150" gradientUnits="userSpaceOnUse"><stop offset=".41"/><stop offset="1" stop-opacity="0"/></linearGradient><linearGradient id="j" x1="24" x2="201" y1="112" y2="91.5" gradientUnits="userSpaceOnUse"><stop stop-color="#9ABEFF"/><stop offset="1" stop-color="#8C72BD"/></linearGradient><linearGradient id="k" x1="24" x2="201" y1="112" y2="91.5" gradientUnits="userSpaceOnUse"><stop stop-color="#9ABEFF"/><stop offset="1" stop-color="#8C72BD"/></linearGradient><linearGradient id="m" x1="208.5" x2="164" y1="83" y2="104.5" gradientUnits="userSpaceOnUse"><stop stop-color="#575757"/><stop offset="1" stop-opacity="0"/></linearGradient><linearGradient id="n" x1="-14.5" x2="28" y1="83" y2="106" gradientUnits="userSpaceOnUse"><stop stop-color="#575757"/><stop offset="1" stop-opacity="0"/></linearGradient><clipPath id="a"><path fill="#fff" d="M0 0h192v192H0z"/></clipPath></defs></svg>
